;FLAVOR:Marlin
;TIME:4033
;Filament used: 8.35391m
;Layer height: 0.4
;MINX:33.106
;MINY:56.819
;MINZ:0.32
;MAXX:217.612
;MAXY:178.181
;MAXZ:13.12
;Generated with Cura_SteamEngine 4.12.0
M140 S110
M105
M190 S110
M104 S220
M105
M109 S220
M82 ;absolute extrusion mode
; Ender 3 Custom Start G-code
G92 E0 ; Reset Extruder
G28 ; Home all axes
G1 Z2.0 F3000 ; Move Z Axis up little to prevent scratching of Heat Bed
G1 X0.1 Y20 Z0.3 F5000.0 ; Move to start position
G1 X0.1 Y200.0 Z0.3 F1500.0 E15 ; Draw the first line
G1 X0.4 Y200.0 Z0.3 F5000.0 ; Move to side a little
G1 X0.4 Y20 Z0.3 F1500.0 E30 ; Draw the second line
G92 E0 ; Reset Extruder
G1 Z2.0 F3000 ; Move Z Axis up little to prevent scratching of Heat Bed
G1 X5 Y20 Z0.3 F5000.0 ; Move over to prevent blob squish
G92 E0
G92 E0
G1 F3000 E-7
;LAYER_COUNT:33
;LAYER:0
M107
G0 F6000 X53.343 Y59.766 Z0.32
;TYPE:SKIRT
G1 F3000 E0
G1 F1200 X54.03 Y59.159 E0.12196
G1 X54.767 Y58.615 E0.24383
G1 X55.549 Y58.138 E0.3657
G1 X56.369 Y57.73 E0.48755
G1 X57.222 Y57.395 E0.60947
G1 X58.101 Y57.136 E0.73138
G1 X58.999 Y56.955 E0.85326
G1 X60.277 Y56.834 E1.02404
G1 X60.748 Y56.821 E1.08673
G1 X60.984 Y56.819 E1.11813
G1 X85.673 Y56.819 E4.40277
G1 X86.543 Y56.831 E4.51852
G1 X87.458 Y56.885 E4.64047
G1 X88.365 Y57.019 E4.76244
G1 X89.256 Y57.232 E4.88432
G1 X90.291 Y57.585 E5.02981
G1 X91.051 Y57.89 E5.13876
G1 X92.073 Y58.318 E5.28617
G1 X94.45 Y59.235 E5.62512
G1 X96.844 Y60.082 E5.96297
G1 X99.225 Y60.849 E6.29577
G1 X101.68 Y61.565 E6.63599
G1 X104.12 Y62.201 E6.97145
G1 X106.617 Y62.779 E7.31244
G1 X109.052 Y63.266 E7.64281
G1 X111.593 Y63.704 E7.98585
G1 X114.063 Y64.057 E8.3178
G1 X116.596 Y64.346 E8.65698
G1 X119.093 Y64.561 E8.99041
G1 X121.62 Y64.705 E9.32715
G1 X124.182 Y64.779 E9.66814
G1 X126.698 Y64.781 E10.00287
G1 X129.241 Y64.711 E10.34132
G1 X131.731 Y64.57 E10.67312
G1 X134.279 Y64.355 E11.01331
G1 X136.804 Y64.07 E11.35137
G1 X139.296 Y63.717 E11.68622
G1 X141.788 Y63.292 E12.02254
G1 X144.322 Y62.785 E12.36635
G1 X145.938 Y62.422 E12.5867
G1 X146.299 Y62.339 E12.63598
G1 X146.784 Y62.233 E12.70203
G1 X149.225 Y61.627 E13.03664
G1 X151.656 Y60.95 E13.37237
G1 X154.146 Y60.18 E13.71912
G1 X155.507 Y59.735 E13.90962
G1 X155.737 Y59.663 E13.94168
G1 X156.624 Y59.435 E14.06352
G1 X157.528 Y59.285 E14.18544
G1 X158.473 Y59.213 E14.31153
G1 X158.909 Y59.202 E14.36955
G1 X159.299 Y59.198 E14.42144
G1 X163.872 Y59.199 E15.02983
G1 X164.577 Y59.21 E15.12364
G1 X165.491 Y59.265 E15.24546
G1 X166.398 Y59.398 E15.36741
G1 X167.289 Y59.611 E15.48929
G1 X168.159 Y59.9 E15.61126
G1 X169 Y60.264 E15.73318
G1 X169.806 Y60.7 E15.85509
G1 X170.398 Y61.082 E15.94882
G1 X170.672 Y61.272 E15.99318
G1 X172.91 Y62.783 E16.35244
G1 X175.011 Y64.117 E16.68354
G1 X177.23 Y65.438 E17.02711
G1 X179.389 Y66.642 E17.35599
G1 X180.868 Y67.414 E17.57795
G1 X181.447 Y67.728 E17.66557
G1 X182.232 Y68.2 E17.78744
G1 X182.973 Y68.739 E17.90934
G1 X183.568 Y69.249 E18.0136
G1 X183.744 Y69.412 E18.04551
G1 X183.961 Y69.62 E18.0855
G1 X184.215 Y69.869 E18.13283
G1 X189.339 Y74.957 E19.09351
G1 X189.825 Y75.453 E19.1859
G1 X190.437 Y76.135 E19.30781
G1 X190.987 Y76.868 E19.42973
G1 X191.472 Y77.646 E19.5517
G1 X191.833 Y78.347 E19.6566
G1 X192.079 Y78.872 E19.73373
G1 X192.726 Y80.315 E19.94413
G1 X193.842 Y82.631 E20.28615
G1 X195.008 Y84.885 E20.62377
G1 X196.225 Y87.084 E20.95815
G1 X197.52 Y89.273 E21.29652
G1 X198.868 Y91.411 E21.63277
G1 X200.281 Y93.519 E21.9704
G1 X201.734 Y95.56 E22.30372
G1 X203.268 Y97.59 E22.64223
G1 X204.855 Y99.572 E22.98003
G1 X206.472 Y101.476 E23.31236
G1 X208.188 Y103.386 E23.65396
G1 X209.966 Y105.256 E23.99725
G1 X210.843 Y106.138 E24.16273
G1 X214.105 Y109.379 E24.77449
G1 X214.607 Y109.892 E24.86998
G1 X215.218 Y110.575 E24.9919
G1 X215.768 Y111.307 E25.11371
G1 X216.252 Y112.086 E25.23573
G1 X216.666 Y112.903 E25.35758
G1 X217.008 Y113.753 E25.47947
G1 X217.274 Y114.63 E25.6014
G1 X217.462 Y115.527 E25.72333
G1 X217.594 Y116.816 E25.89572
G1 X217.604 Y117.18 E25.94416
G1 X217.612 Y117.872 E26.03623
G1 X217.611 Y129.618 E27.59893
G1 X217.601 Y130.32 E27.69233
G1 X217.548 Y131.234 E27.81413
G1 X217.415 Y132.141 E27.93609
G1 X217.204 Y133.033 E28.05804
G1 X216.916 Y133.902 E28.17983
G1 X216.553 Y134.744 E28.30182
G1 X216.119 Y135.55 E28.42361
G1 X215.615 Y136.316 E28.5456
G1 X214.825 Y137.283 E28.71172
G1 X214.521 Y137.606 E28.77073
G1 X214.09 Y138.044 E28.85249
G1 X179.623 Y172.271 E35.31484
G1 X179.01 Y172.862 E35.42812
G1 X178.322 Y173.467 E35.55001
G1 X177.584 Y174.011 E35.67198
G1 X176.802 Y174.487 E35.79378
G1 X175.981 Y174.894 E35.91569
G1 X175.128 Y175.228 E36.03756
G1 X174.248 Y175.486 E36.15957
G1 X173.35 Y175.667 E36.28144
G1 X172.062 Y175.787 E36.45354
G1 X171.623 Y175.798 E36.51196
G1 X171.232 Y175.802 E36.56398
G1 X147.715 Y175.801 E39.6927
G1 X147.012 Y175.791 E39.78624
G1 X146.097 Y175.738 E39.90817
G1 X145.19 Y175.605 E40.03013
G1 X144.092 Y175.333 E40.18062
G1 X142.637 Y174.888 E40.38305
G1 X142.335 Y174.792 E40.42521
G1 X139.934 Y174.099 E40.75768
G1 X137.464 Y173.463 E41.09701
G1 X134.989 Y172.898 E41.43475
G1 X132.489 Y172.4 E41.77389
G1 X130.032 Y171.986 E42.10538
G1 X127.499 Y171.631 E42.44566
G1 X124.996 Y171.352 E42.78072
G1 X122.457 Y171.141 E43.11968
G1 X119.945 Y171.004 E43.45437
G1 X117.43 Y170.938 E43.78909
G1 X114.877 Y170.944 E44.12874
G1 X112.361 Y171.02 E44.46362
G1 X109.837 Y171.169 E44.8
G1 X107.288 Y171.39 E45.14039
G1 X104.78 Y171.681 E45.4763
G1 X102.291 Y172.04 E45.81086
G1 X99.807 Y172.472 E46.1463
G1 X97.316 Y172.976 E46.48441
G1 X94.846 Y173.55 E46.82178
G1 X92.39 Y174.195 E47.15961
G1 X89.97 Y174.903 E47.49506
G1 X87.553 Y175.686 E47.83307
G1 X85.15 Y176.541 E48.1724
G1 X83.536 Y177.158 E48.40229
G1 X82.823 Y177.439 E48.50425
G1 X81.957 Y177.737 E48.62609
G1 X81.068 Y177.959 E48.74799
G1 X80.163 Y178.102 E48.86989
G1 X79.379 Y178.162 E48.9745
G1 X78.946 Y178.175 E49.03213
G1 X78.409 Y178.181 E49.10358
G1 X72.562 Y178.18 E49.88147
G1 X71.857 Y178.169 E49.97527
G1 X70.943 Y178.114 E50.09709
G1 X70.036 Y177.981 E50.21905
G1 X69.145 Y177.768 E50.34093
G1 X68.672 Y177.622 E50.40679
G1 X68.087 Y177.425 E50.48891
G1 X65.629 Y176.635 E50.8324
G1 X63.203 Y175.929 E51.16854
G1 X60.751 Y175.291 E51.50562
G1 X58.402 Y174.751 E51.82628
G1 X58.076 Y174.671 E51.87094
G1 X57.198 Y174.411 E51.99277
G1 X56.346 Y174.074 E52.11466
G1 X55.526 Y173.665 E52.23657
G1 X54.745 Y173.186 E52.35846
G1 X54.143 Y172.747 E52.45759
G1 X53.593 Y172.314 E52.55071
G1 X52.353 Y171.314 E52.76264
G1 X50.375 Y169.809 E53.09331
G1 X48.3 Y168.32 E53.43309
G1 X46.172 Y166.883 E53.77471
G1 X44.003 Y165.505 E54.11658
G1 X43.545 Y165.223 E54.18814
G1 X42.787 Y164.708 E54.31006
G1 X41.911 Y163.98 E54.46159
G1 X41.758 Y163.838 E54.48937
G1 X41.558 Y163.647 E54.52616
G1 X41.291 Y163.386 E54.57583
G1 X36.662 Y158.757 E55.44677
G1 X36.076 Y158.153 E55.55873
G1 X35.468 Y157.468 E55.68058
G1 X34.921 Y156.733 E55.80247
G1 X34.441 Y155.952 E55.92443
G1 X34.031 Y155.133 E56.04629
G1 X33.694 Y154.281 E56.16818
G1 X33.432 Y153.403 E56.29008
G1 X33.248 Y152.505 E56.41203
G1 X33.122 Y151.201 E56.58633
G1 X33.112 Y150.826 E56.63623
G1 X33.106 Y150.289 E56.70768
G1 X33.107 Y84.82 E65.41771
G1 X33.117 Y84.118 E65.51112
G1 X33.17 Y83.204 E65.63292
G1 X33.303 Y82.297 E65.75488
G1 X33.514 Y81.405 E65.87682
G1 X33.802 Y80.536 E65.99862
G1 X34.165 Y79.694 E66.12061
G1 X34.599 Y78.888 E66.2424
G1 X35.103 Y78.122 E66.36439
G1 X35.915 Y77.13 E66.53494
G1 X36.196 Y76.833 E66.58933
G1 X36.642 Y76.38 E66.67391
G1 X52.728 Y60.36 E69.69425
G1 X53.343 Y59.766 E69.808
G1 F3000 E62.808
;MESH:Pe??a1.STL
G0 F6000 X59.707 Y67.291
G0 X61.248 Y68.837
G0 X78.311 Y166.089
G1 F3000 E69.808
G0 F6000 X78.349 Y166.181
;TYPE:WALL-INNER
G1 F1200 X72.641 Y166.181 E70.5674
G1 X69.453 Y162.994 E71.16712
G1 X61.24 Y162.994 E72.25978
G1 X56.962 Y158.716 E73.06468
G1 X56.962 Y155.987 E73.42774
G1 X55.768 Y154.793 E73.65239
G1 X49.67 Y154.793 E74.46367
G1 X45.106 Y150.229 E75.32238
G1 X45.106 Y84.887 E84.01551
G1 X61.241 Y68.819 E87.04498
G1 X85.758 Y68.819 E90.30674
G1 X121.677 Y104.738 E97.06482
G1 X121.677 Y117.972 E98.82547
G1 X117.274 Y122.376 E99.65398
G1 X104.04 Y122.376 E101.41464
G1 X98.611 Y116.947 E102.4361
G1 X96.76 Y117.715 E102.70271
G1 X96.76 Y152.57 E107.33984
G1 X90.558 Y158.772 E108.50673
G1 X85.759 Y158.772 E109.14519
G1 X78.349 Y166.181 E110.53927
G0 F6000 X78.311 Y166.089
G0 X78.763 Y167.181
;TYPE:WALL-OUTER
G1 F1200 X72.227 Y167.181 E111.40882
G1 X69.039 Y163.994 E112.00855
G1 X60.826 Y163.994 E113.10121
G1 X55.962 Y159.13 E114.01636
G1 X55.962 Y156.401 E114.37943
G1 X55.354 Y155.793 E114.49382
G1 X49.256 Y155.793 E115.3051
G1 X44.106 Y150.643 E116.27406
G1 X44.106 Y84.471 E125.07762
G1 X60.827 Y67.819 E128.21715
G1 X86.172 Y67.819 E131.58907
G1 X122.677 Y104.324 E138.4574
G1 X122.677 Y118.386 E140.32822
G1 X117.688 Y123.376 E141.26698
G1 X103.626 Y123.376 E143.13779
G1 X98.377 Y118.127 E144.12538
G1 X97.76 Y118.383 E144.21425
G1 X97.76 Y152.984 E148.81759
G1 X90.972 Y159.772 E150.09474
G1 X86.173 Y159.772 E150.7332
G1 X78.763 Y167.181 E152.12728
G0 F6000 X78.343 Y166.165
G0 X78.284 Y166.106
G0 X77.938 Y165.191
;TYPE:SKIN
G1 F1200 X73.051 Y165.191 E152.77745
G1 X69.863 Y162.004 E153.37717
G1 X61.65 Y162.004 E154.46983
G1 X57.952 Y158.306 E155.1656
G1 X57.952 Y155.577 E155.52867
G1 X56.178 Y153.803 E155.86244
G1 X50.08 Y153.803 E156.67372
G1 X46.096 Y149.819 E157.4233
G1 X46.096 Y85.299 E166.00708
G1 X61.649 Y69.809 E168.92742
G1 X85.348 Y69.809 E172.08035
G1 X120.687 Y105.148 E178.7293
G1 X120.687 Y117.561 E180.38073
G1 X116.863 Y121.386 E181.1003
G1 X104.451 Y121.386 E182.7516
G1 X98.843 Y115.779 E183.80664
G1 X95.77 Y117.054 E184.24927
G1 X95.77 Y152.16 E188.91979
G1 X90.148 Y157.782 E189.97756
G1 X85.349 Y157.782 E190.61602
G1 X77.938 Y165.191 E192.01019
G0 F6000 X55.783 Y154.757
G0 X51.578 Y153.401
G1 F1200 X46.495 Y148.319 E192.96645
G0 F6000 X46.495 Y146.904
G1 F1200 X52.992 Y153.401 E194.18885
G0 F6000 X54.406 Y153.401
G1 F1200 X46.495 Y145.49 E195.67729
G0 F6000 X46.495 Y144.076
G1 F1200 X55.821 Y153.401 E197.43186
G0 F6000 X58.351 Y155.932
G1 F1200 X64.022 Y161.603 E198.49884
G0 F6000 X62.608 Y161.603
G1 F1200 X58.351 Y157.346 E199.29979
G0 F6000 X65.437 Y161.603
G1 F1200 X46.495 Y142.662 E202.86359
G0 F6000 X46.495 Y141.248
G1 F1200 X66.851 Y161.603 E206.69343
G0 F6000 X68.265 Y161.603
G1 F1200 X46.495 Y139.833 E210.78941
G0 F6000 X46.495 Y138.419
G1 F1200 X69.679 Y161.603 E215.15142
G0 F6000 X74.28 Y164.79
G1 F1200 X46.495 Y137.005 E220.37911
G0 F6000 X46.495 Y135.591
G1 F1200 X75.695 Y164.79 E225.87293
G0 F6000 X77.109 Y164.79
G1 F1200 X46.495 Y134.177 E231.63279
G0 F6000 X46.495 Y132.762
G1 F1200 X78.147 Y164.414 E237.58804
G0 F6000 X78.854 Y163.707
G1 F1200 X46.495 Y131.348 E243.67631
G0 F6000 X46.495 Y129.934
G1 F1200 X79.561 Y163 E249.89761
G0 F6000 X80.269 Y162.293
G1 F1200 X46.495 Y128.52 E256.25201
G0 F6000 X46.495 Y127.105
G1 F1200 X80.976 Y161.586 E262.73954
G0 F6000 X81.683 Y160.879
G1 F1200 X46.495 Y125.691 E269.36008
G0 F6000 X46.495 Y124.277
G1 F1200 X82.39 Y160.172 E276.11364
G0 F6000 X83.098 Y159.466
G1 F1200 X46.495 Y122.863 E283.00041
G0 F6000 X46.495 Y121.449
G1 F1200 X83.805 Y158.758 E290.02011
G0 F6000 X84.512 Y158.051
G1 F1200 X46.495 Y120.034 E297.17292
G0 F6000 X46.495 Y118.62
G1 F1200 X85.256 Y157.381 E304.46572
G0 F6000 X86.67 Y157.381
G1 F1200 X46.495 Y117.206 E312.02455
G0 F6000 X46.495 Y115.792
G1 F1200 X88.084 Y157.381 E319.84943
G0 F6000 X89.499 Y157.381
G1 F1200 X46.495 Y114.378 E327.94044
G0 F6000 X46.495 Y112.963
G1 F1200 X90.447 Y156.915 E336.20991
G0 F6000 X91.154 Y156.208
G1 F1200 X46.495 Y111.549 E344.6124
G0 F6000 X46.495 Y110.135
G1 F1200 X91.861 Y155.501 E353.14791
G0 F6000 X92.568 Y154.794
G1 F1200 X46.495 Y108.721 E361.81644
G0 F6000 X46.495 Y107.306
G1 F1200 X93.275 Y154.087 E370.61809
G0 F6000 X93.982 Y153.379
G1 F1200 X46.495 Y105.892 E379.55266
G0 F6000 X46.495 Y104.478
G1 F1200 X94.69 Y152.672 E388.62034
G0 F6000 X95.37 Y151.938
G1 F1200 X46.495 Y103.064 E397.81597
G0 F6000 X46.495 Y101.65
G1 F1200 X95.37 Y150.524 E407.0116
G0 F6000 X95.37 Y149.11
G1 F1200 X46.495 Y100.235 E416.20732
G0 F6000 X46.495 Y98.821
G1 F1200 X95.37 Y147.696 E425.40304
G0 F6000 X95.37 Y146.282
G1 F1200 X46.495 Y97.407 E434.59876
G0 F6000 X46.495 Y95.993
G1 F1200 X95.37 Y144.867 E443.79439
G0 F6000 X95.37 Y143.453
G1 F1200 X46.495 Y94.579 E452.99001
G0 F6000 X46.495 Y93.164
G1 F1200 X95.37 Y142.039 E462.18573
G0 F6000 X95.37 Y140.625
G1 F1200 X46.495 Y91.75 E471.38145
G0 F6000 X46.495 Y90.336
G1 F1200 X95.37 Y139.21 E480.57708
G0 F6000 X95.37 Y137.796
G1 F1200 X46.495 Y88.922 E489.77271
G0 F6000 X46.495 Y87.507
G1 F1200 X95.37 Y136.382 E498.96843
G0 F6000 X95.37 Y134.968
G1 F1200 X46.495 Y86.093 E508.16415
G0 F6000 X46.889 Y85.073
G1 F1200 X95.37 Y133.554 E517.28574
G0 F6000 X95.37 Y132.139
G1 F1200 X47.598 Y84.367 E526.27393
G0 F6000 X48.306 Y83.662
G1 F1200 X95.37 Y130.725 E535.12882
G0 F6000 X95.37 Y129.311
G1 F1200 X49.015 Y82.956 E543.85041
G0 F6000 X49.723 Y82.25
G1 F1200 X95.37 Y127.897 E552.43879
G0 F6000 X95.37 Y126.483
G1 F1200 X50.432 Y81.544 E560.89387
G0 F6000 X51.14 Y80.839
G1 F1200 X95.37 Y125.068 E569.21555
G0 F6000 X95.37 Y123.654
G1 F1200 X51.849 Y80.133 E577.40393
G0 F6000 X52.557 Y79.427
G1 F1200 X95.37 Y122.24 E585.45909
G0 F6000 X95.37 Y120.826
G1 F1200 X53.266 Y78.722 E593.38087
G0 F6000 X53.974 Y78.016
G1 F1200 X95.37 Y119.411 E601.16934
G0 F6000 X95.37 Y117.997
G1 F1200 X54.683 Y77.31 E608.8245
G0 F6000 X55.391 Y76.605
G1 F1200 X95.512 Y116.725 E616.37308
G0 F6000 X96.511 Y116.31
G1 F1200 X56.1 Y75.899 E623.97632
G0 F6000 X56.808 Y75.193
G1 F1200 X97.511 Y115.896 E631.6345
G0 F6000 X98.511 Y115.481
G1 F1200 X57.517 Y74.488 E639.34733
G0 F6000 X58.226 Y73.782
G1 F1200 X105.428 Y120.985 E648.22838
G0 F6000 X106.843 Y120.985
G1 F1200 X58.934 Y73.076 E657.24235
G0 F6000 X59.643 Y72.37
G1 F1200 X108.257 Y120.985 E666.38906
G0 F6000 X109.671 Y120.985
G1 F1200 X60.351 Y71.665 E675.6685
G0 F6000 X61.06 Y70.959
G1 F1200 X111.085 Y120.985 E685.08069
G0 F6000 X112.499 Y120.985
G1 F1200 X61.768 Y70.253 E694.6257
G0 F6000 X63.138 Y70.209
G1 F1200 X113.914 Y120.985 E704.17909
G0 F6000 X115.328 Y120.985
G1 F1200 X64.552 Y70.209 E713.73248
G0 F6000 X65.966 Y70.209
G1 F1200 X116.719 Y120.961 E723.28145
G0 F6000 X117.426 Y120.254
G1 F1200 X67.38 Y70.209 E732.6974
G0 F6000 X68.795 Y70.209
G1 F1200 X118.133 Y119.547 E741.98023
G0 F6000 X118.84 Y118.84
G1 F1200 X70.209 Y70.209 E751.13004
G0 F6000 X71.623 Y70.209
G1 F1200 X119.547 Y118.133 E760.14684
G0 F6000 X120.254 Y117.426
G1 F1200 X73.037 Y70.209 E769.03061
G0 F6000 X74.451 Y70.209
G1 F1200 X120.285 Y116.043 E777.65417
G0 F6000 X120.285 Y114.629
G1 F1200 X75.866 Y70.209 E786.0116
G0 F6000 X77.28 Y70.209
G1 F1200 X120.285 Y113.214 E794.10289
G0 F6000 X120.285 Y111.8
G1 F1200 X78.694 Y70.209 E801.92814
G0 F6000 X80.108 Y70.209
G1 F1200 X120.285 Y110.386 E809.48736
G0 F6000 X120.285 Y108.972
G1 F1200 X81.523 Y70.209 E816.78043
G0 F6000 X82.937 Y70.209
G1 F1200 X120.285 Y107.558 E823.80747
G0 F6000 X120.285 Y106.143
G1 F1200 X84.351 Y70.209 E830.56837
G1 F3000 E823.56837
;MESH:Pe??a2.STL
G0 F6000 X117.267 Y122.358
G0 X118.811 Y123.901
G0 X131.036 Y122.358
G0 X133.221 Y122.358
G0 X147.814 Y163.71
G1 F3000 E830.56837
G0 F6000 X147.776 Y163.802
;TYPE:WALL-INNER
G1 F1200 X133.201 Y149.329 E833.30104
G1 X133.201 Y85.897 E841.74007
G1 X136.788 Y82.335 E842.41261
G1 X142.794 Y82.335 E843.21165
G1 X144.851 Y80.292 E843.59736
G1 X144.851 Y77.623 E843.95244
G1 X148.183 Y74.315 E844.5771
G1 X156.272 Y74.315 E845.65326
G1 X159.412 Y71.198 E846.24189
G1 X163.796 Y71.198 E846.82513
G1 X171.094 Y78.444 E848.19335
G1 X175.82 Y78.444 E848.8221
G1 X180.835 Y83.423 E849.76228
G1 X180.835 Y122.85 E855.00767
G1 X182.682 Y123.621 E855.27395
G1 X191.941 Y114.426 E857.01
G1 X202.157 Y114.426 E858.36914
G1 X205.612 Y117.857 E859.01694
G1 X205.612 Y129.55 E860.57258
G1 X171.119 Y163.802 E867.03973
G1 X147.776 Y163.802 E870.14529
G0 F6000 X147.814 Y163.71
G0 X147.363 Y164.802
;TYPE:WALL-OUTER
